storage/app/icons/phosphoricons/bold/folder-minus-bold.svg

<svg xmlns="http://www.w3.org/2000/svg" fill="currentColor" viewBox="0 0 256 256"><path d="M92 144a12 12 0 0 1 12-12h48a12 12 0 0 1 0 24h-48a12 12 0 0 1-12-12m144-56v112.89A19.13 19.13 0 0 1 216.89 220H39.38A19.41 19.41 0 0 1 20 200.62V52a20 20 0 0 1 20-20h52.41a20 20 0 0 1 15 6.71l26 29.29H216a20 20 0 0 1 20 20M44 68h57.28L90.61 56H44Zm168 24H44v104h168Z"/></svg>

<svg xmlns="http://www.w3.org/2000/svg" viewBox="0 0 256 256" fill="currentColor"><path d="M92,144a12,12,0,0,1,12-12h48a12,12,0,0,1,0,24H104A12,12,0,0,1,92,144ZM236,88V200.89A19.13,19.13,0,0,1,216.89,220H39.38A19.41,19.41,0,0,1,20,200.62V52A20,20,0,0,1,40,32H92.41a20,20,0,0,1,15,6.71l26,29.29H216A20,20,0,0,1,236,88ZM44,68h57.28L90.61,56H44ZM212,92H44V196H212Z"/></svg>
